X:1
T:When You Go A-Courting
M:2/4
L:1/16
K:C
 GG GG EE D2| CC EE G4| G2 AA c2d2| c2E2 G4| G2A2 cc dd| c2E2 G2 GG|\
 D2D2 E2 EE| C2C2 c3 c| G2G2 E2 EE| D2D2 C4|

